!!!OTL: EI DU FEINER REITER
!!!ARE: Europa, Mitteleuropa, Deutschland
!!!SCT: E1298
!!!YEM: Copyright 1995, estate of Helmut Schaffrath.
**kern
*ICvox
*Ivox
*M4/4
*k[]
*C:
=1
{4.e
8f
4g
4a
=2
2g
4g}
{4f
=3
4e
4e
4d
4d
=4
1c}
=5
{4.e
8f
4g
4a
=6
2g
4g}
{4f
=7
4e
4e
4d
4d
=8
1c}
=9
{4.b
8cc
4dd
4ee
=10
2dd
4dd}
{4cc
=11
2b
2a
=12
1g}
=13
{4.b
8cc
4dd
4ee
=14
2dd
4dd}
{4cc
=15
2b
2a
=16
2.g}
{4g
=17
2cc
2a
=18
2.g}
{4g
=19
2cc
2a
=20
2.g}
{4g
=21
2cc
4cc
4dd
=22
2cc
2b}
=23
{2cc
2a
=24
1g}
=25
{4.e
8f
4g
4a
=26
4.g
8g
4g}
{4f
=27
4e
4e
4d
4d
=28
1c}
==
!!!AGN: Staende -, Soldaten - Lied, Reiter
!!!ONB: ESAC (Essen Associative Code) Database: ERK3
!!!AMT: simple quadruple
!!!AIN: vox
!!!EED: Helmut Schaffrath
!!!EEV: 1.0
*-
